X:0421
T:There's my thumb &c.
M:C
L:1/8
Q:1/2=104 "Moderato"
I: :: ::
Z:Jack Campin * www.campin.me.uk * 2009
K:G
(GA)(Bc) d2 cB  | A>Bcd   e2(e/f/g) |G2Bc {e}d2    cB|e2 (e/f/g) ({e}d2)TcB     |
 c>Bcd  (e>fg).B|(A>Bc)d .e2(e/f/g) |G3 E    D3     E|G3  A          B2  B/c/d :|
 g3   a  g3    b| a3   b  afed      |g3 a    g/a/b ag|gde=f         (ed)(cB)    |
 c(eTdc) B(dTcB)|(A>Bc)d  e2(e/f/Hg)|G3 E    D3     E|G3  A          B2 (B/c/d):|
<end>
<start>
